app/dist/common/images/edesa-biotech.svg

<svg height="18" viewBox="0 0 18 18" width="18" xmlns="http://www.w3.org/2000/svg"><path d="m0 0h18v18h-18z" fill="#f0f3fa"/><path d="m8 4v1h-2v3.5h2v1h-2v3.5h2v1h-2.48a.52.52 0 0 1 -.52-.53v-8.94c0-.3.23-.53.52-.53z" fill="#60a845"/><path d="m9 5v-1h1.64a2.44 2.44 0 0 1 2.36 2.49v.65c0 .67-.33 1.26-.9 1.67.84.4 1.4 1.14 1.4 2.05v.65c0 1.38-.99 2.49-2.6 2.49h-1.9v-1h1.5c1.07 0 1.96-.83 1.96-1.75v-.07c0-.92-.89-1.68-1.96-1.68h-1.5v-1h1.16c.86 0 1.7-.7 1.7-1.6v-.08c0-.92-.65-1.82-1.5-1.82z" fill="#4a4f55"/></svg>

<!-- by TradingView --><svg xmlns="http://www.w3.org/2000/svg" width="18" height="18" viewBox="0 0 18 18"><path fill="#F0F3FA" d="M0 0h18v18H0z"/><path d="M8 4v1H6v3.5h2v1H6V13h2v1H5.52a.52.52 0 0 1-.52-.53V4.53c0-.3.23-.53.52-.53H8z" fill="#60A845"/><path d="M9 5V4h1.64A2.44 2.44 0 0 1 13 6.49v.65c0 .67-.33 1.26-.9 1.67.84.4 1.4 1.14 1.4 2.05v.65c0 1.38-.99 2.49-2.6 2.49H9v-1h1.5c1.07 0 1.96-.83 1.96-1.75v-.07c0-.92-.89-1.68-1.96-1.68H9v-1h1.16c.86 0 1.7-.7 1.7-1.6v-.08c0-.92-.65-1.82-1.5-1.82H9z" fill="#4A4F55"/></svg>
